site/static/images/icons/integration.svg

<svg fill="none" height="32" viewBox="0 0 32 32" width="32" xmlns="http://www.w3.org/2000/svg"><circle cx="16" cy="16" fill="#f0f8ff" r="16"/><path clip-rule="evenodd" d="m18.5608 10.4762c.0535-.0641.1327-.1012.2161-.1012h.8793c.1554 0 .2813.1259.2813.2812v1.6876 6.1874 1.6876c0 .1553-.1259.2812-.2813.2812h-.8793c-.0834 0-.1626-.0371-.2161-.1012l-1.0689-1.2827c-.1369-.1643-.3312-.2705-.5435-.2971l-3.5145-.4393c-.1408-.0176-.2464-.1372-.2464-.2791v-2.9444-2.3818c0-.1419.1056-.2615.2464-.2791l3.5145-.4393c.2123-.0266.4066-.1327.5435-.2971zm-7.0608 5.5238v2.1006c0 .9929.7393 1.8304 1.7246 1.9536l3.1841.398.8558 1.0269c.374.4489.9281.7084 1.5124.7084h.8793c1.0874 0 1.9688-.8814 1.9688-1.9687v-.8438h2.5312c.466 0 .8438-.3778.8438-.8438 0-.4659-.3778-.8437-.8438-.8437h-2.5312v-4.5h2.5312c.466 0 .8438-.3778.8438-.8437 0-.466-.3778-.8438-.8438-.8438h-2.5312v-.8438c0-1.08726-.8814-1.9687-1.9688-1.9687h-.8793c-.5843 0-1.1384.25953-1.5124.70839l-.8558 1.02691-3.1841.398c-.9853.1232-1.7246.9607-1.7246 1.9536v1.5381h-1.6875c-1.5533 0-2.8125 1.2592-2.8125 2.8125v5.9062c0 .466.37776.8438.84375.8438s.84375-.3778.84375-.8438v-5.9062c0-.6213.50368-1.125 1.125-1.125z" fill="#0075ff" fill-rule="evenodd"/></svg>

<svg width="32" height="32" viewBox="0 0 32 32" fill="none" xmlns="http://www.w3.org/2000/svg">
<circle cx="16" cy="16" r="16" fill="#F0F8FF"/>
<path fill-rule="evenodd" clip-rule="evenodd" d="M18.5608 10.4762C18.6143 10.4121 18.6935 10.375 18.7769 10.375H19.6562C19.8116 10.375 19.9375 10.5009 19.9375 10.6562V12.3438V18.5312V20.2188C19.9375 20.3741 19.8116 20.5 19.6562 20.5H18.7769C18.6935 20.5 18.6143 20.4629 18.5608 20.3988L17.4919 19.1161C17.355 18.9518 17.1607 18.8456 16.9484 18.819L13.4339 18.3797C13.2931 18.3621 13.1875 18.2425 13.1875 18.1006V15.1562V12.7744C13.1875 12.6325 13.2931 12.5129 13.4339 12.4953L16.9484 12.056C17.1607 12.0294 17.355 11.9233 17.4919 11.7589L18.5608 10.4762ZM11.5 16V18.1006C11.5 19.0935 12.2393 19.931 13.2246 20.0542L16.4087 20.4522L17.2645 21.4791C17.6385 21.928 18.1926 22.1875 18.7769 22.1875H19.6562C20.7436 22.1875 21.625 21.3061 21.625 20.2188V19.375H24.1562C24.6222 19.375 25 18.9972 25 18.5312C25 18.0653 24.6222 17.6875 24.1562 17.6875H21.625V13.1875H24.1562C24.6222 13.1875 25 12.8097 25 12.3438C25 11.8778 24.6222 11.5 24.1562 11.5H21.625V10.6562C21.625 9.56894 20.7436 8.6875 19.6562 8.6875H18.7769C18.1926 8.6875 17.6385 8.94703 17.2645 9.39589L16.4087 10.4228L13.2246 10.8208C12.2393 10.944 11.5 11.7815 11.5 12.7744V14.3125H9.8125C8.2592 14.3125 7 15.5717 7 17.125V23.0312C7 23.4972 7.37776 23.875 7.84375 23.875C8.30974 23.875 8.6875 23.4972 8.6875 23.0312V17.125C8.6875 16.5037 9.19118 16 9.8125 16H11.5Z" fill="#0075ff"/>
</svg>
